packages/dnb-eufemia/assets/icons/tractor_medium.svg

<svg width="24" height="24" viewBox="0 0 24 24" fill="none" xmlns="http://www.w3.org/2000/svg">
<path d="M13.4969 12.4949C12.1369 10.4541 9.9005 9.08632 7.46416 8.80536C6.02845 8.63979 4.56155 8.85099 3.23459 9.41052M0.749939 11.0249C1.47733 10.3427 2.31896 9.79662 3.23459 9.41052M19.5008 18.8718H20.243M4.99689 2.99292H3.99694C3.99694 2.45493 3.78072 0.749756 4.63604 0.749756H11.8578C12.7132 0.749756 12.4969 2.45493 12.4969 2.99292H11.4969M4.99689 2.99292H11.4969M4.99689 2.99292L3.23459 9.41052M11.4969 2.99292L12.9739 8.74992L20.6569 9.93992C21.2848 10.1183 21.747 10.7302 21.7469 11.3829V16.0683M21.7469 16.0683C22.6514 16.6737 23.2469 17.7048 23.2469 18.8749C23.2469 20.7389 21.7359 22.2499 19.8719 22.2499C18.1347 22.2499 16.7041 20.9374 16.5175 19.2499M21.7469 16.0683C21.2107 15.7093 20.5657 15.4999 19.8719 15.4999C17.8855 15.4999 16.3004 17.286 16.5175 19.2499M11.2414 19.2527C10.3982 21.0249 8.59115 22.2499 6.49794 22.2499C3.59844 22.2499 1.24794 19.8994 1.24794 16.9999C1.24794 14.1004 3.59844 11.7499 6.49794 11.7499C9.39743 11.7499 11.7479 14.1004 11.7479 16.9999C11.7479 17.8062 11.5662 18.57 11.2414 19.2527ZM11.2414 19.2527L16.5175 19.2499M4.24794 16.9999C4.24794 18.2426 5.2553 19.2499 6.49794 19.2499C7.74058 19.2499 8.74794 18.2426 8.74794 16.9999C8.74794 15.7573 7.74058 14.7499 6.49794 14.7499C5.2553 14.7499 4.24794 15.7573 4.24794 16.9999ZM19.8719 19.2527C20.0709 19.2527 20.2469 19.0766 20.2469 18.8777C20.2469 18.6788 20.0709 18.5027 19.8719 18.5027C19.673 18.5027 19.4969 18.6788 19.4969 18.8777C19.4969 19.0766 19.673 19.2527 19.8719 19.2527Z" stroke="black" stroke-width="1.5" stroke-linecap="round" stroke-linejoin="round"/>
</svg>

<svg width="24" height="24" viewBox="0 0 24 24" fill="none" xmlns="http://www.w3.org/2000/svg"><path d="M13.497 12.495a8.467 8.467 0 0 0-6.033-3.69 8.437 8.437 0 0 0-4.23.606M.75 11.025A8.407 8.407 0 0 1 3.235 9.41M19.5 18.87h.742M4.997 2.994h-1c0-.538-.216-2.243.639-2.243h7.222c.855 0 .639 1.705.639 2.243h-1m-6.5 0h6.5m-6.5 0L3.235 9.41m8.262-6.418 1.477 5.757 7.683 1.19c.628.178 1.09.79 1.09 1.443v4.685m0 0a3.375 3.375 0 1 1-5.23 3.182m5.23-3.182a3.359 3.359 0 0 0-1.875-.568c-1.986 0-3.572 1.786-3.355 3.75m-5.276.003a5.25 5.25 0 1 1-9.485-4.507 5.25 5.25 0 0 1 9.485 4.507Zm0 0 5.276-.003M4.247 17a2.25 2.25 0 1 0 4.5 0 2.25 2.25 0 0 0-4.5 0Zm15.625 2.253a.386.386 0 0 0 .375-.375.386.386 0 0 0-.375-.375.386.386 0 0 0-.375.375c0 .199.176.375.375.375Z" stroke="#000" stroke-width="1.5" stroke-linecap="round" stroke-linejoin="round"/></svg>
